{
  "type": "map",
  "version": "1.10",
  "tiledversion": "1.11.2",
  "orientation": "orthogonal",
  "renderorder": "right-down",
  "infinite": false,
  "compressionlevel": -1,
  "width": 29,
  "height": 16,
  "tilewidth": 32,
  "tileheight": 32,
  "nextlayerid": 8,
  "nextobjectid": 30,
  "properties": [
    {
      "name": "schemaVersion",
      "type": "int",
      "value": 1
    },
    {
      "name": "mapId",
      "type": "string",
      "value": "number-forest-map-1"
    },
    {
      "name": "stageId",
      "type": "string",
      "value": "number-forest"
    },
    {
      "name": "title",
      "type": "string",
      "value": "숫자 숲의 봉인 다리"
    }
  ],
  "tilesets": [
    {
      "firstgid": 1,
      "name": "ninja-adventure-32",
      "tilewidth": 32,
      "tileheight": 32,
      "tilecount": 1120,
      "columns": 28,
      "margin": 0,
      "spacing": 0,
      "image": "/game-assets/ninja-adventure/tileset-32.png",
      "imagewidth": 896,
      "imageheight": 1280
    }
  ],
  "layers": [
    {
      "id": 1,
      "name": "ground",
      "type": "tilelayer",
      "x": 0,
      "y": 0,
      "width": 29,
      "height": 16,
      "opacity": 1,
      "visible": true,
      "data": [
        462,
        462,
        462,
        462,
        462,
        462,
        462,
        462,
        462,
        462,
        462,
        462,
        462,
        462,
        462,
        462,
        462,
        462,
        462,
        462,
        462,
        462,
        462,
        462,
        462,
        462,
        462,
        462,
        462,
        462,
        462,
        462,
        462,
        462,
        462,
        462,
        462,
        462,
        462,
        462,
        462,
        462,
        462,
        462,
        462,
        462,
        462,
        462,
        462,
        462,
        462,
        462,
        462,
        462,
        462,
        462,
        462,
        462,
        462,
        462,
        462,
        462,
        462,
        462,
        462,
        462,
        462,
        462,
        462,
        462,
        462,
        462,
        462,
        462,
        462,
        462,
        462,
        462,
        462,
        462,
        462,
        462,
        462,
        462,
        462,
        462,
        462,
        462,
        462,
        462,
        462,
        462,
        462,
        462,
        462,
        462,
        462,
        462,
        462,
        462,
        462,
        462,
        462,
        462,
        462,
        462,
        462,
        462,
        462,
        462,
        462,
        462,
        462,
        462,
        462,
        462,
        462,
        462,
        462,
        462,
        462,
        462,
        462,
        462,
        462,
        462,
        462,
        462,
        462,
        462,
        462,
        462,
        462,
        462,
        462,
        462,
        462,
        462,
        462,
        462,
        462,
        462,
        462,
        462,
        462,
        462,
        462,
        462,
        462,
        462,
        462,
        462,
        462,
        462,
        462,
        462,
        462,
        462,
        462,
        462,
        462,
        462,
        462,
        462,
        462,
        462,
        462,
        462,
        462,
        462,
        462,
        462,
        462,
        462,
        462,
        462,
        462,
        462,
        462,
        462,
        462,
        462,
        462,
        462,
        462,
        462,
        462,
        462,
        462,
        462,
        462,
        462,
        462,
        462,
        462,
        462,
        462,
        462,
        462,
        462,
        462,
        462,
        462,
        462,
        462,
        462,
        462,
        462,
        462,
        462,
        462,
        462,
        462,
        462,
        462,
        462,
        462,
        462,
        462,
        462,
        462,
        462,
        462,
        462,
        462,
        462,
        462,
        462,
        462,
        462,
        462,
        462,
        462,
        462,
        462,
        462,
        462,
        462,
        462,
        462,
        462,
        462,
        462,
        462,
        462,
        462,
        462,
        462,
        462,
        462,
        462,
        462,
        462,
        462,
        462,
        462,
        462,
        462,
        462,
        462,
        462,
        462,
        462,
        462,
        462,
        462,
        462,
        462,
        462,
        462,
        462,
        462,
        462,
        462,
        462,
        462,
        462,
        462,
        462,
        462,
        462,
        462,
        462,
        462,
        462,
        462,
        462,
        462,
        462,
        462,
        462,
        462,
        462,
        462,
        462,
        462,
        462,
        462,
        462,
        462,
        462,
        462,
        462,
        462,
        462,
        462,
        462,
        462,
        462,
        462,
        462,
        462,
        462,
        462,
        462,
        462,
        462,
        462,
        462,
        462,
        462,
        462,
        462,
        462,
        462,
        462,
        462,
        462,
        462,
        462,
        462,
        462,
        462,
        462,
        462,
        462,
        462,
        462,
        462,
        462,
        462,
        462,
        462,
        462,
        462,
        462,
        462,
        462,
        462,
        462,
        462,
        462,
        462,
        462,
        462,
        462,
        462,
        462,
        462,
        462,
        462,
        462,
        462,
        462,
        462,
        462,
        462,
        462,
        462,
        462,
        462,
        462,
        462,
        462,
        462,
        462,
        462,
        462,
        462,
        462,
        462,
        462,
        462,
        462,
        462,
        462,
        462,
        462,
        462,
        462,
        462,
        462,
        462,
        462,
        462,
        462,
        462,
        462,
        462,
        462,
        462,
        462,
        462,
        462,
        462,
        462,
        462,
        462,
        462,
        462,
        462,
        462,
        462,
        462,
        462,
        462,
        462,
        462,
        462,
        462,
        462,
        462,
        462,
        462,
        462,
        462,
        462,
        462,
        462,
        462,
        462,
        462,
        462,
        462,
        462,
        462,
        462,
        462,
        462,
        462,
        462,
        462,
        462,
        462,
        462,
        462,
        462,
        462,
        462,
        462,
        462,
        462,
        462,
        462,
        462,
        462,
        462,
        462,
        462,
        462,
        462,
        462,
        462,
        462
      ]
    },
    {
      "id": 2,
      "name": "paths",
      "type": "tilelayer",
      "x": 0,
      "y": 0,
      "width": 29,
      "height": 16,
      "opacity": 1,
      "visible": true,
      "data": [
        0,
        0,
        0,
        0,
        0,
        0,
        0,
        0,
        0,
        0,
        0,
        0,
        0,
        0,
        0,
        0,
        0,
        0,
        0,
        0,
        0,
        0,
        0,
        0,
        0,
        0,
        0,
        0,
        0,
        0,
        0,
        0,
        0,
        0,
        0,
        0,
        0,
        0,
        0,
        0,
        0,
        0,
        0,
        0,
        0,
        0,
        0,
        0,
        0,
        0,
        0,
        0,
        0,
        0,
        0,
        0,
        0,
        0,
        0,
        0,
        0,
        0,
        0,
        0,
        0,
        0,
        0,
        0,
        0,
        0,
        0,
        0,
        0,
        0,
        0,
        0,
        0,
        0,
        0,
        0,
        0,
        0,
        0,
        0,
        0,
        0,
        0,
        0,
        0,
        0,
        0,
        0,
        0,
        0,
        0,
        0,
        0,
        0,
        0,
        0,
        0,
        0,
        0,
        0,
        0,
        0,
        0,
        0,
        0,
        0,
        0,
        0,
        0,
        0,
        0,
        0,
        0,
        0,
        0,
        0,
        0,
        0,
        0,
        0,
        0,
        0,
        0,
        0,
        0,
        0,
        0,
        0,
        0,
        0,
        0,
        0,
        0,
        0,
        0,
        0,
        0,
        0,
        0,
        0,
        0,
        470,
        470,
        470,
        470,
        470,
        470,
        470,
        470,
        470,
        470,
        470,
        470,
        470,
        470,
        470,
        470,
        470,
        470,
        470,
        470,
        470,
        470,
        470,
        470,
        470,
        470,
        470,
        470,
        0,
        470,
        470,
        470,
        470,
        470,
        470,
        470,
        470,
        470,
        470,
        470,
        470,
        470,
        470,
        470,
        470,
        470,
        470,
        470,
        470,
        470,
        470,
        470,
        470,
        470,
        470,
        470,
        470,
        0,
        470,
        470,
        470,
        470,
        470,
        470,
        470,
        470,
        470,
        470,
        470,
        470,
        470,
        470,
        470,
        470,
        470,
        470,
        470,
        470,
        470,
        470,
        470,
        470,
        470,
        470,
        470,
        470,
        0,
        470,
        470,
        470,
        470,
        470,
        470,
        470,
        470,
        470,
        470,
        470,
        470,
        470,
        470,
        470,
        470,
        470,
        470,
        470,
        470,
        470,
        470,
        470,
        470,
        470,
        470,
        470,
        470,
        0,
        470,
        470,
        470,
        470,
        470,
        470,
        470,
        470,
        470,
        470,
        470,
        470,
        470,
        470,
        470,
        470,
        470,
        470,
        470,
        470,
        470,
        470,
        470,
        470,
        470,
        470,
        470,
        470,
        0,
        470,
        470,
        470,
        470,
        470,
        470,
        470,
        470,
        470,
        470,
        470,
        470,
        470,
        470,
        470,
        470,
        470,
        470,
        470,
        470,
        470,
        470,
        470,
        470,
        470,
        470,
        470,
        470,
        0,
        470,
        470,
        470,
        470,
        470,
        470,
        470,
        470,
        470,
        470,
        470,
        470,
        470,
        470,
        470,
        470,
        470,
        470,
        470,
        470,
        470,
        470,
        470,
        470,
        470,
        470,
        470,
        470,
        0,
        470,
        470,
        470,
        470,
        470,
        470,
        470,
        470,
        470,
        470,
        470,
        470,
        470,
        470,
        470,
        470,
        470,
        470,
        470,
        470,
        470,
        470,
        470,
        470,
        470,
        470,
        470,
        470,
        0,
        470,
        470,
        470,
        470,
        470,
        470,
        470,
        470,
        470,
        470,
        470,
        470,
        470,
        470,
        470,
        470,
        470,
        470,
        470,
        470,
        470,
        470,
        470,
        470,
        470,
        470,
        470,
        470,
        0,
        470,
        470,
        470,
        470,
        470,
        470,
        470,
        470,
        470,
        470,
        470,
        470,
        470,
        470,
        470,
        470,
        470,
        470,
        470,
        470,
        470,
        470,
        470,
        470,
        470,
        470,
        470,
        470,
        0,
        0,
        0,
        0,
        0,
        0,
        0,
        0,
        0,
        0,
        0,
        0,
        0,
        0,
        0,
        0,
        0,
        0,
        0,
        0,
        0,
        0,
        0,
        0,
        0,
        0,
        0,
        0,
        0,
        0
      ]
    },
    {
      "id": 3,
      "name": "water",
      "type": "tilelayer",
      "x": 0,
      "y": 0,
      "width": 29,
      "height": 16,
      "opacity": 1,
      "visible": true,
      "data": [
        0,
        0,
        0,
        0,
        0,
        0,
        0,
        0,
        0,
        0,
        0,
        0,
        0,
        0,
        0,
        0,
        0,
        0,
        0,
        0,
        0,
        0,
        0,
        0,
        0,
        0,
        0,
        0,
        0,
        0,
        0,
        0,
        0,
        0,
        0,
        0,
        0,
        0,
        0,
        0,
        0,
        0,
        0,
        0,
        0,
        0,
        0,
        0,
        0,
        0,
        0,
        0,
        0,
        0,
        0,
        0,
        0,
        0,
        0,
        0,
        0,
        0,
        0,
        0,
        0,
        0,
        0,
        0,
        0,
        0,
        0,
        0,
        0,
        0,
        0,
        0,
        0,
        0,
        0,
        0,
        0,
        0,
        0,
        0,
        0,
        0,
        0,
        0,
        0,
        0,
        0,
        0,
        0,
        0,
        0,
        0,
        0,
        0,
        0,
        0,
        0,
        0,
        0,
        0,
        0,
        0,
        0,
        0,
        0,
        0,
        0,
        0,
        0,
        0,
        0,
        0,
        0,
        0,
        0,
        0,
        0,
        0,
        0,
        0,
        0,
        0,
        0,
        0,
        0,
        0,
        0,
        0,
        0,
        0,
        0,
        0,
        0,
        0,
        0,
        0,
        0,
        0,
        0,
        0,
        0,
        0,
        0,
        0,
        0,
        0,
        0,
        0,
        0,
        0,
        0,
        0,
        0,
        0,
        0,
        0,
        0,
        0,
        0,
        0,
        0,
        0,
        0,
        0,
        0,
        0,
        0,
        0,
        0,
        0,
        0,
        0,
        0,
        0,
        0,
        0,
        0,
        0,
        0,
        0,
        0,
        0,
        0,
        0,
        0,
        245,
        245,
        245,
        0,
        0,
        0,
        0,
        0,
        0,
        0,
        0,
        0,
        0,
        0,
        0,
        0,
        0,
        0,
        0,
        0,
        0,
        0,
        0,
        0,
        0,
        0,
        0,
        0,
        0,
        245,
        245,
        245,
        0,
        0,
        0,
        0,
        0,
        0,
        0,
        0,
        0,
        0,
        0,
        0,
        0,
        0,
        0,
        0,
        0,
        0,
        0,
        0,
        0,
        0,
        0,
        0,
        0,
        0,
        245,
        245,
        245,
        0,
        0,
        0,
        0,
        0,
        0,
        0,
        0,
        0,
        0,
        0,
        0,
        0,
        0,
        0,
        0,
        0,
        0,
        0,
        0,
        0,
        0,
        0,
        0,
        0,
        0,
        245,
        245,
        245,
        0,
        0,
        0,
        0,
        0,
        0,
        0,
        0,
        0,
        0,
        0,
        0,
        0,
        0,
        0,
        0,
        0,
        0,
        0,
        0,
        0,
        0,
        0,
        0,
        0,
        0,
        245,
        245,
        245,
        0,
        0,
        0,
        0,
        0,
        0,
        0,
        0,
        0,
        0,
        0,
        0,
        0,
        0,
        0,
        0,
        0,
        0,
        0,
        0,
        0,
        0,
        0,
        0,
        0,
        0,
        245,
        245,
        245,
        0,
        0,
        0,
        0,
        0,
        0,
        0,
        0,
        0,
        0,
        0,
        0,
        0,
        0,
        0,
        0,
        0,
        0,
        0,
        0,
        0,
        0,
        0,
        0,
        0,
        0,
        245,
        245,
        245,
        0,
        0,
        0,
        0,
        0,
        0,
        0,
        0,
        0,
        0,
        0,
        0,
        0,
        0,
        0,
        0,
        0,
        0,
        0,
        0,
        0,
        0,
        0,
        0,
        0,
        0,
        245,
        245,
        245,
        0,
        0,
        0,
        0,
        0,
        0,
        0,
        0,
        0,
        0,
        0,
        0,
        0,
        0,
        0,
        0,
        0,
        0,
        0,
        0,
        0,
        0,
        0,
        0,
        0,
        0,
        245,
        245,
        245,
        0,
        0,
        0,
        0,
        0,
        0,
        0,
        0,
        0,
        0,
        0,
        0,
        0,
        0,
        0,
        0,
        0,
        0,
        0,
        0,
        0,
        0,
        0,
        0,
        0,
        0,
        0,
        0,
        0,
        0,
        0,
        0,
        0,
        0,
        0,
        0,
        0,
        0,
        0,
        0
      ]
    },
    {
      "id": 4,
      "name": "decor",
      "type": "tilelayer",
      "x": 0,
      "y": 0,
      "width": 29,
      "height": 16,
      "opacity": 1,
      "visible": true,
      "data": [
        0,
        0,
        0,
        0,
        0,
        0,
        0,
        0,
        0,
        0,
        0,
        0,
        0,
        0,
        0,
        0,
        0,
        0,
        0,
        0,
        0,
        0,
        0,
        0,
        0,
        0,
        0,
        0,
        0,
        0,
        0,
        0,
        0,
        0,
        0,
        0,
        0,
        0,
        0,
        0,
        0,
        0,
        0,
        0,
        0,
        0,
        0,
        0,
        0,
        0,
        0,
        0,
        0,
        0,
        0,
        0,
        0,
        0,
        0,
        0,
        0,
        0,
        0,
        0,
        0,
        0,
        0,
        0,
        0,
        0,
        0,
        0,
        0,
        0,
        0,
        0,
        0,
        0,
        0,
        0,
        0,
        0,
        0,
        0,
        0,
        0,
        0,
        0,
        0,
        0,
        0,
        0,
        0,
        0,
        0,
        0,
        0,
        0,
        0,
        0,
        0,
        0,
        0,
        0,
        0,
        0,
        0,
        0,
        0,
        0,
        0,
        0,
        0,
        0,
        0,
        0,
        0,
        0,
        0,
        0,
        0,
        0,
        0,
        0,
        0,
        0,
        0,
        0,
        0,
        0,
        0,
        0,
        0,
        0,
        0,
        0,
        0,
        0,
        0,
        0,
        0,
        0,
        0,
        0,
        0,
        0,
        0,
        0,
        0,
        0,
        0,
        0,
        0,
        0,
        0,
        0,
        0,
        0,
        0,
        0,
        0,
        0,
        0,
        0,
        0,
        0,
        0,
        0,
        0,
        0,
        0,
        0,
        0,
        0,
        0,
        0,
        0,
        0,
        0,
        0,
        0,
        0,
        0,
        0,
        281,
        282,
        283,
        0,
        0,
        0,
        0,
        293,
        294,
        295,
        0,
        0,
        0,
        0,
        0,
        0,
        0,
        0,
        0,
        0,
        0,
        0,
        0,
        0,
        0,
        0,
        0,
        0,
        0,
        309,
        310,
        311,
        0,
        0,
        0,
        0,
        321,
        322,
        323,
        0,
        0,
        0,
        0,
        0,
        0,
        0,
        0,
        0,
        0,
        0,
        0,
        0,
        0,
        0,
        0,
        0,
        0,
        0,
        0,
        0,
        0,
        0,
        0,
        0,
        0,
        0,
        0,
        0,
        0,
        0,
        0,
        0,
        0,
        0,
        0,
        0,
        0,
        0,
        0,
        0,
        0,
        0,
        0,
        0,
        0,
        0,
        0,
        0,
        0,
        0,
        0,
        0,
        221,
        222,
        223,
        0,
        0,
        0,
        0,
        0,
        0,
        0,
        0,
        0,
        0,
        0,
        0,
        0,
        0,
        0,
        0,
        0,
        0,
        0,
        0,
        0,
        0,
        0,
        0,
        0,
        0,
        249,
        250,
        251,
        0,
        0,
        0,
        0,
        0,
        0,
        0,
        0,
        0,
        0,
        0,
        0,
        0,
        0,
        0,
        0,
        0,
        0,
        0,
        0,
        0,
        281,
        282,
        283,
        0,
        0,
        0,
        0,
        293,
        294,
        295,
        0,
        0,
        0,
        0,
        0,
        0,
        0,
        0,
        0,
        0,
        0,
        0,
        0,
        0,
        0,
        0,
        0,
        0,
        0,
        309,
        310,
        311,
        0,
        0,
        0,
        0,
        321,
        322,
        323,
        0,
        0,
        0,
        0,
        0,
        0,
        0,
        0,
        0,
        0,
        0,
        0,
        0,
        0,
        0,
        0,
        0,
        0,
        0,
        0,
        0,
        0,
        0,
        0,
        0,
        0,
        0,
        0,
        0,
        0,
        0,
        0,
        0,
        0,
        0,
        0,
        0,
        0,
        0,
        0,
        0,
        0,
        0,
        0,
        0,
        0,
        0,
        0,
        0,
        0,
        0,
        0,
        0,
        0,
        0,
        0,
        0,
        0,
        0,
        0,
        0,
        0,
        0,
        0,
        0,
        0,
        0,
        0,
        0,
        0,
        0,
        0,
        0,
        0,
        0,
        0,
        0,
        0,
        0,
        0,
        0,
        0,
        0,
        0,
        0,
        0,
        0,
        0,
        0,
        0,
        0,
        0,
        0,
        0,
        0,
        0
      ]
    },
    {
      "id": 5,
      "name": "collision",
      "type": "objectgroup",
      "draworder": "topdown",
      "opacity": 1,
      "visible": true,
      "objects": [
        {
          "id": 1,
          "name": "tree-north-1",
          "class": "obstacle",
          "x": 330,
          "y": 220,
          "width": 76,
          "height": 54,
          "rotation": 0,
          "visible": true,
          "properties": [
            {
              "name": "kind",
              "type": "string",
              "value": "tree"
            }
          ]
        },
        {
          "id": 2,
          "name": "tree-south-1",
          "class": "obstacle",
          "x": 350,
          "y": 355,
          "width": 78,
          "height": 48,
          "rotation": 0,
          "visible": true,
          "properties": [
            {
              "name": "kind",
              "type": "string",
              "value": "tree"
            }
          ]
        },
        {
          "id": 3,
          "name": "rock-north-1",
          "class": "obstacle",
          "x": 570,
          "y": 215,
          "width": 70,
          "height": 45,
          "rotation": 0,
          "visible": true,
          "properties": [
            {
              "name": "kind",
              "type": "string",
              "value": "rock"
            }
          ]
        },
        {
          "id": 4,
          "name": "rock-south-1",
          "class": "obstacle",
          "x": 555,
          "y": 365,
          "width": 82,
          "height": 44,
          "rotation": 0,
          "visible": true,
          "properties": [
            {
              "name": "kind",
              "type": "string",
              "value": "rock"
            }
          ]
        },
        {
          "id": 5,
          "name": "river",
          "class": "obstacle",
          "x": 485,
          "y": 270,
          "width": 92,
          "height": 150,
          "rotation": 0,
          "visible": true,
          "properties": [
            {
              "name": "kind",
              "type": "string",
              "value": "water"
            }
          ]
        }
      ]
    },
    {
      "id": 6,
      "name": "entities",
      "type": "objectgroup",
      "draworder": "topdown",
      "opacity": 1,
      "visible": true,
      "objects": [
        {
          "id": 6,
          "name": "player-spawn",
          "class": "player_spawn",
          "point": true,
          "x": 105,
          "y": 315,
          "width": 0,
          "height": 0,
          "rotation": 0,
          "visible": true,
          "properties": []
        },
        {
          "id": 7,
          "name": "number-forest-portal",
          "class": "portal",
          "point": true,
          "x": 775,
          "y": 270,
          "width": 0,
          "height": 0,
          "rotation": 0,
          "visible": true,
          "properties": []
        },
        {
          "id": 8,
          "name": "seed-slime",
          "class": "boss",
          "point": true,
          "x": 828,
          "y": 288,
          "width": 0,
          "height": 0,
          "rotation": 0,
          "visible": true,
          "properties": []
        },
        {
          "id": 9,
          "name": "forest-chest",
          "class": "chest",
          "point": true,
          "x": 235,
          "y": 360,
          "width": 0,
          "height": 0,
          "rotation": 0,
          "visible": true,
          "properties": []
        },
        {
          "id": 10,
          "name": "number-2",
          "class": "collectible",
          "point": true,
          "x": 280,
          "y": 305,
          "width": 0,
          "height": 0,
          "rotation": 0,
          "visible": true,
          "properties": [
            {
              "name": "value",
              "type": "string",
              "value": "2"
            }
          ]
        },
        {
          "id": 11,
          "name": "number-5",
          "class": "collectible",
          "point": true,
          "x": 455,
          "y": 265,
          "width": 0,
          "height": 0,
          "rotation": 0,
          "visible": true,
          "properties": [
            {
              "name": "value",
              "type": "string",
              "value": "5"
            }
          ]
        },
        {
          "id": 12,
          "name": "number-8",
          "class": "collectible",
          "point": true,
          "x": 625,
          "y": 320,
          "width": 0,
          "height": 0,
          "rotation": 0,
          "visible": true,
          "properties": [
            {
              "name": "value",
              "type": "string",
              "value": "8"
            }
          ]
        },
        {
          "id": 13,
          "name": "forest-guide",
          "class": "npc",
          "point": true,
          "x": 175,
          "y": 300,
          "width": 0,
          "height": 0,
          "rotation": 0,
          "visible": true,
          "properties": []
        },
        {
          "id": 14,
          "name": "bridge-sprite",
          "class": "npc",
          "point": true,
          "x": 430,
          "y": 340,
          "width": 0,
          "height": 0,
          "rotation": 0,
          "visible": true,
          "properties": []
        }
      ]
    },
    {
      "id": 7,
      "name": "zones",
      "type": "objectgroup",
      "draworder": "topdown",
      "opacity": 1,
      "visible": true,
      "objects": [
        {
          "id": 15,
          "name": "forest-bridge",
          "class": "bridge",
          "x": 485,
          "y": 292,
          "width": 92,
          "height": 58,
          "rotation": 0,
          "visible": true,
          "properties": []
        },
        {
          "id": 16,
          "name": "lower-hidden-path",
          "class": "secret_area",
          "x": 610,
          "y": 360,
          "width": 145,
          "height": 55,
          "rotation": 0,
          "visible": true,
          "properties": []
        },
        {
          "id": 17,
          "name": "battle-hud-safe-area",
          "class": "battle_safe_area",
          "x": 64,
          "y": 96,
          "width": 800,
          "height": 266,
          "rotation": 0,
          "visible": true,
          "properties": []
        }
      ]
    }
  ]
}
