{
  "type": "map",
  "version": "1.10",
  "tiledversion": "1.11.2",
  "orientation": "orthogonal",
  "renderorder": "right-down",
  "infinite": false,
  "compressionlevel": -1,
  "width": 29,
  "height": 16,
  "tilewidth": 32,
  "tileheight": 32,
  "nextlayerid": 8,
  "nextobjectid": 30,
  "properties": [
    {
      "name": "schemaVersion",
      "type": "int",
      "value": 1
    },
    {
      "name": "mapId",
      "type": "string",
      "value": "story-castle-map-1"
    },
    {
      "name": "stageId",
      "type": "string",
      "value": "story-castle"
    },
    {
      "name": "title",
      "type": "string",
      "value": "이야기 성의 세 증언"
    }
  ],
  "tilesets": [
    {
      "firstgid": 1,
      "name": "ninja-adventure-32",
      "tilewidth": 32,
      "tileheight": 32,
      "tilecount": 1120,
      "columns": 28,
      "margin": 0,
      "spacing": 0,
      "image": "/game-assets/ninja-adventure/tileset-32.png",
      "imagewidth": 896,
      "imageheight": 1280
    }
  ],
  "layers": [
    {
      "id": 1,
      "name": "ground",
      "type": "tilelayer",
      "x": 0,
      "y": 0,
      "width": 29,
      "height": 16,
      "opacity": 1,
      "visible": true,
      "data": [
        920,
        920,
        920,
        920,
        920,
        920,
        920,
        920,
        920,
        920,
        920,
        920,
        920,
        920,
        920,
        920,
        920,
        920,
        920,
        920,
        920,
        920,
        920,
        920,
        920,
        920,
        920,
        920,
        920,
        920,
        920,
        920,
        920,
        920,
        920,
        920,
        920,
        920,
        920,
        920,
        920,
        920,
        920,
        920,
        920,
        920,
        920,
        920,
        920,
        920,
        920,
        920,
        920,
        920,
        920,
        920,
        920,
        920,
        920,
        920,
        920,
        920,
        920,
        920,
        920,
        920,
        920,
        920,
        920,
        920,
        920,
        920,
        920,
        920,
        920,
        920,
        920,
        920,
        920,
        920,
        920,
        920,
        920,
        920,
        920,
        920,
        920,
        920,
        920,
        920,
        920,
        920,
        920,
        920,
        920,
        920,
        920,
        920,
        920,
        920,
        920,
        920,
        920,
        920,
        920,
        920,
        920,
        920,
        920,
        920,
        920,
        920,
        920,
        920,
        920,
        920,
        920,
        920,
        920,
        920,
        920,
        920,
        920,
        920,
        920,
        920,
        920,
        920,
        920,
        920,
        920,
        920,
        920,
        920,
        920,
        920,
        920,
        920,
        920,
        920,
        920,
        920,
        920,
        920,
        920,
        920,
        920,
        920,
        920,
        920,
        920,
        920,
        920,
        920,
        920,
        920,
        920,
        920,
        920,
        920,
        920,
        920,
        920,
        920,
        920,
        920,
        920,
        920,
        920,
        920,
        920,
        920,
        920,
        920,
        920,
        920,
        920,
        920,
        920,
        920,
        920,
        920,
        920,
        920,
        920,
        920,
        920,
        920,
        920,
        920,
        920,
        920,
        920,
        920,
        920,
        920,
        920,
        920,
        920,
        920,
        920,
        920,
        920,
        920,
        920,
        920,
        920,
        920,
        920,
        920,
        920,
        920,
        920,
        920,
        920,
        920,
        920,
        920,
        920,
        920,
        920,
        920,
        920,
        920,
        920,
        920,
        920,
        920,
        920,
        920,
        920,
        920,
        920,
        920,
        920,
        920,
        920,
        920,
        920,
        920,
        920,
        920,
        920,
        920,
        920,
        920,
        920,
        920,
        920,
        920,
        920,
        920,
        920,
        920,
        920,
        920,
        920,
        920,
        920,
        920,
        920,
        920,
        920,
        920,
        920,
        920,
        920,
        920,
        920,
        920,
        920,
        920,
        920,
        920,
        920,
        920,
        920,
        920,
        920,
        920,
        920,
        920,
        920,
        920,
        920,
        920,
        920,
        920,
        920,
        920,
        920,
        920,
        920,
        920,
        920,
        920,
        920,
        920,
        920,
        920,
        920,
        920,
        920,
        920,
        920,
        920,
        920,
        920,
        920,
        920,
        920,
        920,
        920,
        920,
        920,
        920,
        920,
        920,
        920,
        920,
        920,
        920,
        920,
        920,
        920,
        920,
        920,
        920,
        920,
        920,
        920,
        920,
        920,
        920,
        920,
        920,
        920,
        920,
        920,
        920,
        920,
        920,
        920,
        920,
        920,
        920,
        920,
        920,
        920,
        920,
        920,
        920,
        920,
        920,
        920,
        920,
        920,
        920,
        920,
        920,
        920,
        920,
        920,
        920,
        920,
        920,
        920,
        920,
        920,
        920,
        920,
        920,
        920,
        920,
        920,
        920,
        920,
        920,
        920,
        920,
        920,
        920,
        920,
        920,
        920,
        920,
        920,
        920,
        920,
        920,
        920,
        920,
        920,
        920,
        920,
        920,
        920,
        920,
        920,
        920,
        920,
        920,
        920,
        920,
        920,
        920,
        920,
        920,
        920,
        920,
        920,
        920,
        920,
        920,
        920,
        920,
        920,
        920,
        920,
        920,
        920,
        920,
        920,
        920,
        920,
        920,
        920,
        920,
        920,
        920,
        920,
        920,
        920,
        920,
        920,
        920,
        920,
        920,
        920,
        920,
        920,
        920,
        920,
        920,
        920,
        920,
        920,
        920,
        920,
        920,
        920,
        920,
        920,
        920,
        920,
        920,
        920,
        920,
        920,
        920,
        920,
        920,
        920,
        920
      ]
    },
    {
      "id": 2,
      "name": "paths",
      "type": "tilelayer",
      "x": 0,
      "y": 0,
      "width": 29,
      "height": 16,
      "opacity": 1,
      "visible": true,
      "data": [
        0,
        0,
        0,
        0,
        0,
        0,
        0,
        0,
        0,
        0,
        0,
        0,
        0,
        0,
        0,
        0,
        0,
        0,
        0,
        0,
        0,
        0,
        0,
        0,
        0,
        0,
        0,
        0,
        0,
        0,
        0,
        0,
        0,
        0,
        0,
        0,
        0,
        0,
        0,
        0,
        0,
        0,
        0,
        0,
        0,
        0,
        0,
        0,
        0,
        0,
        0,
        0,
        0,
        0,
        0,
        0,
        0,
        0,
        0,
        0,
        0,
        0,
        0,
        0,
        0,
        0,
        0,
        0,
        0,
        0,
        0,
        0,
        0,
        0,
        0,
        0,
        0,
        0,
        0,
        0,
        0,
        0,
        0,
        0,
        0,
        0,
        0,
        0,
        0,
        0,
        0,
        0,
        0,
        0,
        0,
        0,
        0,
        0,
        0,
        0,
        0,
        0,
        0,
        0,
        0,
        0,
        0,
        0,
        0,
        0,
        0,
        0,
        0,
        0,
        0,
        0,
        0,
        0,
        0,
        0,
        0,
        0,
        0,
        0,
        0,
        0,
        0,
        0,
        0,
        0,
        0,
        0,
        0,
        0,
        0,
        0,
        0,
        0,
        0,
        0,
        0,
        0,
        0,
        0,
        0,
        920,
        920,
        920,
        920,
        920,
        920,
        920,
        920,
        920,
        920,
        920,
        920,
        920,
        920,
        920,
        920,
        920,
        920,
        920,
        920,
        920,
        920,
        920,
        920,
        920,
        920,
        920,
        920,
        0,
        920,
        920,
        920,
        920,
        920,
        920,
        920,
        920,
        920,
        920,
        920,
        920,
        920,
        920,
        920,
        920,
        920,
        920,
        920,
        920,
        920,
        920,
        920,
        920,
        920,
        920,
        920,
        920,
        0,
        920,
        920,
        920,
        920,
        920,
        920,
        920,
        920,
        920,
        920,
        920,
        920,
        920,
        920,
        920,
        920,
        920,
        920,
        920,
        920,
        920,
        920,
        920,
        920,
        920,
        920,
        920,
        920,
        0,
        920,
        920,
        920,
        920,
        920,
        920,
        920,
        920,
        920,
        920,
        920,
        920,
        920,
        920,
        920,
        920,
        920,
        920,
        920,
        920,
        920,
        920,
        920,
        920,
        920,
        920,
        920,
        920,
        0,
        920,
        920,
        920,
        920,
        920,
        920,
        920,
        920,
        920,
        920,
        920,
        920,
        920,
        920,
        920,
        920,
        920,
        920,
        920,
        920,
        920,
        920,
        920,
        920,
        920,
        920,
        920,
        920,
        0,
        920,
        920,
        920,
        920,
        920,
        920,
        920,
        920,
        920,
        920,
        920,
        920,
        920,
        920,
        920,
        920,
        920,
        920,
        920,
        920,
        920,
        920,
        920,
        920,
        920,
        920,
        920,
        920,
        0,
        920,
        920,
        920,
        920,
        920,
        920,
        920,
        920,
        920,
        920,
        920,
        920,
        920,
        920,
        920,
        920,
        920,
        920,
        920,
        920,
        920,
        920,
        920,
        920,
        920,
        920,
        920,
        920,
        0,
        920,
        920,
        920,
        920,
        920,
        920,
        920,
        920,
        920,
        920,
        920,
        920,
        920,
        920,
        920,
        920,
        920,
        920,
        920,
        920,
        920,
        920,
        920,
        920,
        920,
        920,
        920,
        920,
        0,
        920,
        920,
        920,
        920,
        920,
        920,
        920,
        920,
        920,
        920,
        920,
        920,
        920,
        920,
        920,
        920,
        920,
        920,
        920,
        920,
        920,
        920,
        920,
        920,
        920,
        920,
        920,
        920,
        0,
        920,
        920,
        920,
        920,
        920,
        920,
        920,
        920,
        920,
        920,
        920,
        920,
        920,
        920,
        920,
        920,
        920,
        920,
        920,
        920,
        920,
        920,
        920,
        920,
        920,
        920,
        920,
        920,
        0,
        0,
        0,
        0,
        0,
        0,
        0,
        0,
        0,
        0,
        0,
        0,
        0,
        0,
        0,
        0,
        0,
        0,
        0,
        0,
        0,
        0,
        0,
        0,
        0,
        0,
        0,
        0,
        0,
        0
      ]
    },
    {
      "id": 3,
      "name": "water",
      "type": "tilelayer",
      "x": 0,
      "y": 0,
      "width": 29,
      "height": 16,
      "opacity": 1,
      "visible": true,
      "data": [
        0,
        0,
        0,
        0,
        0,
        0,
        0,
        0,
        0,
        0,
        0,
        0,
        0,
        0,
        0,
        0,
        0,
        0,
        0,
        0,
        0,
        0,
        0,
        0,
        0,
        0,
        0,
        0,
        0,
        0,
        0,
        0,
        0,
        0,
        0,
        0,
        0,
        0,
        0,
        0,
        0,
        0,
        0,
        0,
        0,
        0,
        0,
        0,
        0,
        0,
        0,
        0,
        0,
        0,
        0,
        0,
        0,
        0,
        0,
        0,
        0,
        0,
        0,
        0,
        0,
        0,
        0,
        0,
        0,
        0,
        0,
        0,
        0,
        0,
        0,
        0,
        0,
        0,
        0,
        0,
        0,
        0,
        0,
        0,
        0,
        0,
        0,
        0,
        0,
        0,
        0,
        0,
        0,
        0,
        0,
        0,
        0,
        0,
        0,
        0,
        0,
        0,
        0,
        0,
        0,
        0,
        0,
        0,
        0,
        0,
        0,
        0,
        0,
        0,
        0,
        0,
        0,
        0,
        0,
        0,
        0,
        0,
        0,
        0,
        0,
        0,
        0,
        0,
        0,
        0,
        0,
        0,
        0,
        0,
        0,
        0,
        0,
        0,
        0,
        0,
        0,
        0,
        0,
        0,
        0,
        0,
        0,
        0,
        0,
        0,
        0,
        0,
        0,
        0,
        0,
        0,
        0,
        0,
        0,
        0,
        0,
        0,
        0,
        0,
        0,
        0,
        0,
        0,
        0,
        0,
        0,
        0,
        0,
        0,
        0,
        0,
        0,
        0,
        0,
        0,
        0,
        0,
        0,
        0,
        0,
        0,
        0,
        0,
        0,
        245,
        245,
        245,
        0,
        0,
        0,
        0,
        0,
        0,
        0,
        0,
        0,
        0,
        0,
        0,
        0,
        0,
        0,
        0,
        0,
        0,
        0,
        0,
        0,
        0,
        0,
        0,
        0,
        0,
        245,
        245,
        245,
        0,
        0,
        0,
        0,
        0,
        0,
        0,
        0,
        0,
        0,
        0,
        0,
        0,
        0,
        0,
        0,
        0,
        0,
        0,
        0,
        0,
        0,
        0,
        0,
        0,
        0,
        245,
        245,
        245,
        0,
        0,
        0,
        0,
        0,
        0,
        0,
        0,
        0,
        0,
        0,
        0,
        0,
        0,
        0,
        0,
        0,
        0,
        0,
        0,
        0,
        0,
        0,
        0,
        0,
        0,
        245,
        245,
        245,
        0,
        0,
        0,
        0,
        0,
        0,
        0,
        0,
        0,
        0,
        0,
        0,
        0,
        0,
        0,
        0,
        0,
        0,
        0,
        0,
        0,
        0,
        0,
        0,
        0,
        0,
        245,
        245,
        245,
        0,
        0,
        0,
        0,
        0,
        0,
        0,
        0,
        0,
        0,
        0,
        0,
        0,
        0,
        0,
        0,
        0,
        0,
        0,
        0,
        0,
        0,
        0,
        0,
        0,
        0,
        245,
        245,
        245,
        0,
        0,
        0,
        0,
        0,
        0,
        0,
        0,
        0,
        0,
        0,
        0,
        0,
        0,
        0,
        0,
        0,
        0,
        0,
        0,
        0,
        0,
        0,
        0,
        0,
        0,
        245,
        245,
        245,
        0,
        0,
        0,
        0,
        0,
        0,
        0,
        0,
        0,
        0,
        0,
        0,
        0,
        0,
        0,
        0,
        0,
        0,
        0,
        0,
        0,
        0,
        0,
        0,
        0,
        0,
        245,
        245,
        245,
        0,
        0,
        0,
        0,
        0,
        0,
        0,
        0,
        0,
        0,
        0,
        0,
        0,
        0,
        0,
        0,
        0,
        0,
        0,
        0,
        0,
        0,
        0,
        0,
        0,
        0,
        245,
        245,
        245,
        0,
        0,
        0,
        0,
        0,
        0,
        0,
        0,
        0,
        0,
        0,
        0,
        0,
        0,
        0,
        0,
        0,
        0,
        0,
        0,
        0,
        0,
        0,
        0,
        0,
        0,
        0,
        0,
        0,
        0,
        0,
        0,
        0,
        0,
        0,
        0,
        0,
        0,
        0,
        0
      ]
    },
    {
      "id": 4,
      "name": "decor",
      "type": "tilelayer",
      "x": 0,
      "y": 0,
      "width": 29,
      "height": 16,
      "opacity": 1,
      "visible": true,
      "data": [
        0,
        0,
        0,
        0,
        0,
        0,
        0,
        0,
        0,
        0,
        0,
        0,
        0,
        0,
        0,
        0,
        0,
        0,
        0,
        0,
        0,
        0,
        0,
        0,
        0,
        0,
        0,
        0,
        0,
        0,
        0,
        0,
        0,
        0,
        0,
        0,
        0,
        0,
        0,
        0,
        0,
        0,
        0,
        0,
        0,
        0,
        0,
        0,
        0,
        0,
        0,
        0,
        0,
        0,
        0,
        0,
        0,
        0,
        0,
        0,
        0,
        0,
        0,
        0,
        0,
        0,
        0,
        0,
        0,
        0,
        0,
        0,
        0,
        0,
        0,
        0,
        0,
        0,
        0,
        0,
        0,
        0,
        0,
        0,
        0,
        0,
        0,
        0,
        0,
        0,
        0,
        0,
        0,
        0,
        0,
        0,
        0,
        0,
        0,
        0,
        0,
        0,
        0,
        0,
        0,
        0,
        0,
        0,
        0,
        0,
        0,
        0,
        0,
        0,
        0,
        0,
        0,
        0,
        0,
        0,
        0,
        0,
        0,
        0,
        0,
        0,
        0,
        0,
        0,
        0,
        0,
        0,
        0,
        0,
        0,
        0,
        0,
        0,
        0,
        0,
        0,
        0,
        0,
        0,
        0,
        0,
        0,
        0,
        0,
        0,
        0,
        0,
        0,
        0,
        0,
        0,
        0,
        0,
        0,
        0,
        0,
        0,
        0,
        0,
        0,
        0,
        0,
        0,
        0,
        0,
        0,
        0,
        0,
        0,
        0,
        0,
        0,
        0,
        0,
        0,
        0,
        0,
        0,
        0,
        293,
        294,
        295,
        0,
        0,
        0,
        0,
        0,
        0,
        0,
        0,
        0,
        0,
        0,
        0,
        0,
        0,
        0,
        0,
        0,
        0,
        0,
        0,
        0,
        0,
        0,
        0,
        0,
        0,
        321,
        322,
        323,
        0,
        0,
        0,
        0,
        0,
        0,
        0,
        0,
        0,
        0,
        0,
        0,
        0,
        0,
        0,
        0,
        0,
        0,
        0,
        0,
        0,
        0,
        0,
        0,
        0,
        0,
        0,
        0,
        0,
        0,
        0,
        0,
        0,
        0,
        0,
        0,
        0,
        0,
        0,
        0,
        0,
        0,
        0,
        0,
        0,
        0,
        0,
        0,
        0,
        0,
        0,
        0,
        0,
        0,
        0,
        0,
        0,
        0,
        0,
        0,
        221,
        222,
        223,
        0,
        0,
        0,
        0,
        0,
        0,
        0,
        0,
        0,
        0,
        0,
        0,
        0,
        0,
        0,
        0,
        0,
        0,
        0,
        0,
        0,
        0,
        0,
        0,
        0,
        0,
        249,
        250,
        251,
        0,
        0,
        0,
        0,
        0,
        0,
        0,
        0,
        0,
        0,
        0,
        0,
        0,
        0,
        0,
        0,
        0,
        0,
        0,
        0,
        0,
        293,
        294,
        295,
        0,
        0,
        0,
        0,
        0,
        0,
        610,
        611,
        612,
        0,
        0,
        0,
        0,
        0,
        0,
        0,
        0,
        0,
        0,
        0,
        0,
        0,
        0,
        0,
        0,
        0,
        321,
        322,
        323,
        0,
        0,
        0,
        0,
        0,
        0,
        638,
        639,
        640,
        0,
        0,
        0,
        0,
        0,
        0,
        0,
        0,
        0,
        0,
        0,
        0,
        0,
        0,
        0,
        0,
        0,
        0,
        0,
        0,
        0,
        0,
        0,
        0,
        0,
        0,
        0,
        0,
        0,
        0,
        0,
        0,
        0,
        0,
        0,
        0,
        0,
        0,
        0,
        0,
        0,
        0,
        0,
        0,
        0,
        0,
        0,
        0,
        0,
        0,
        0,
        0,
        0,
        0,
        0,
        0,
        0,
        0,
        0,
        0,
        0,
        0,
        0,
        0,
        0,
        0,
        0,
        0,
        0,
        0,
        0,
        0,
        0,
        0,
        0,
        0,
        0,
        0,
        0,
        0,
        0,
        0,
        0,
        0,
        0,
        0,
        0,
        0,
        0,
        0,
        0,
        0,
        0,
        0
      ]
    },
    {
      "id": 5,
      "name": "collision",
      "type": "objectgroup",
      "draworder": "topdown",
      "opacity": 1,
      "visible": true,
      "objects": [
        {
          "id": 1,
          "name": "castle-pillar-1",
          "class": "obstacle",
          "x": 325,
          "y": 210,
          "width": 76,
          "height": 62,
          "rotation": 0,
          "visible": true,
          "properties": [
            {
              "name": "kind",
              "type": "string",
              "value": "rock"
            }
          ]
        },
        {
          "id": 2,
          "name": "castle-pillar-2",
          "class": "obstacle",
          "x": 350,
          "y": 365,
          "width": 76,
          "height": 46,
          "rotation": 0,
          "visible": true,
          "properties": [
            {
              "name": "kind",
              "type": "string",
              "value": "rock"
            }
          ]
        },
        {
          "id": 3,
          "name": "memory-moat",
          "class": "obstacle",
          "x": 510,
          "y": 250,
          "width": 90,
          "height": 165,
          "rotation": 0,
          "visible": true,
          "properties": [
            {
              "name": "kind",
              "type": "string",
              "value": "water"
            }
          ]
        },
        {
          "id": 4,
          "name": "archive-tree",
          "class": "obstacle",
          "x": 620,
          "y": 360,
          "width": 78,
          "height": 50,
          "rotation": 0,
          "visible": true,
          "properties": [
            {
              "name": "kind",
              "type": "string",
              "value": "tree"
            }
          ]
        }
      ]
    },
    {
      "id": 6,
      "name": "entities",
      "type": "objectgroup",
      "draworder": "topdown",
      "opacity": 1,
      "visible": true,
      "objects": [
        {
          "id": 5,
          "name": "player-spawn",
          "class": "player_spawn",
          "point": true,
          "x": 105,
          "y": 315,
          "width": 0,
          "height": 0,
          "rotation": 0,
          "visible": true,
          "properties": []
        },
        {
          "id": 6,
          "name": "story-castle-portal",
          "class": "portal",
          "point": true,
          "x": 780,
          "y": 270,
          "width": 0,
          "height": 0,
          "rotation": 0,
          "visible": true,
          "properties": []
        },
        {
          "id": 7,
          "name": "logic-guardian",
          "class": "boss",
          "point": true,
          "x": 835,
          "y": 285,
          "width": 0,
          "height": 0,
          "rotation": 0,
          "visible": true,
          "properties": []
        },
        {
          "id": 8,
          "name": "archive-chest",
          "class": "chest",
          "point": true,
          "x": 235,
          "y": 360,
          "width": 0,
          "height": 0,
          "rotation": 0,
          "visible": true,
          "properties": []
        },
        {
          "id": 9,
          "name": "story-beginning",
          "class": "collectible",
          "point": true,
          "x": 275,
          "y": 330,
          "width": 0,
          "height": 0,
          "rotation": 0,
          "visible": true,
          "properties": [
            {
              "name": "value",
              "type": "string",
              "value": "처음"
            }
          ]
        },
        {
          "id": 10,
          "name": "story-middle",
          "class": "collectible",
          "point": true,
          "x": 465,
          "y": 265,
          "width": 0,
          "height": 0,
          "rotation": 0,
          "visible": true,
          "properties": [
            {
              "name": "value",
              "type": "string",
              "value": "가운데"
            }
          ]
        },
        {
          "id": 11,
          "name": "story-ending",
          "class": "collectible",
          "point": true,
          "x": 645,
          "y": 325,
          "width": 0,
          "height": 0,
          "rotation": 0,
          "visible": true,
          "properties": [
            {
              "name": "value",
              "type": "string",
              "value": "끝"
            }
          ]
        },
        {
          "id": 12,
          "name": "castle-witness",
          "class": "npc",
          "point": true,
          "x": 175,
          "y": 300,
          "width": 0,
          "height": 0,
          "rotation": 0,
          "visible": true,
          "properties": []
        },
        {
          "id": 13,
          "name": "castle-knight",
          "class": "npc",
          "point": true,
          "x": 445,
          "y": 355,
          "width": 0,
          "height": 0,
          "rotation": 0,
          "visible": true,
          "properties": []
        }
      ]
    },
    {
      "id": 7,
      "name": "zones",
      "type": "objectgroup",
      "draworder": "topdown",
      "opacity": 1,
      "visible": true,
      "objects": [
        {
          "id": 14,
          "name": "castle-drawbridge",
          "class": "bridge",
          "x": 510,
          "y": 300,
          "width": 90,
          "height": 60,
          "rotation": 0,
          "visible": true,
          "properties": []
        },
        {
          "id": 15,
          "name": "hidden-archive",
          "class": "secret_area",
          "x": 630,
          "y": 350,
          "width": 130,
          "height": 60,
          "rotation": 0,
          "visible": true,
          "properties": []
        }
      ]
    }
  ]
}
