{
  "type": "map",
  "version": "1.10",
  "tiledversion": "1.11.2",
  "orientation": "orthogonal",
  "renderorder": "right-down",
  "infinite": false,
  "compressionlevel": -1,
  "width": 29,
  "height": 16,
  "tilewidth": 32,
  "tileheight": 32,
  "nextlayerid": 8,
  "nextobjectid": 30,
  "properties": [
    {
      "name": "schemaVersion",
      "type": "int",
      "value": 1
    },
    {
      "name": "mapId",
      "type": "string",
      "value": "word-island-map-1"
    },
    {
      "name": "stageId",
      "type": "string",
      "value": "word-island"
    },
    {
      "name": "title",
      "type": "string",
      "value": "단어섬의 속삭이는 문"
    }
  ],
  "tilesets": [
    {
      "firstgid": 1,
      "name": "ninja-adventure-32",
      "tilewidth": 32,
      "tileheight": 32,
      "tilecount": 1120,
      "columns": 28,
      "margin": 0,
      "spacing": 0,
      "image": "/game-assets/ninja-adventure/tileset-32.png",
      "imagewidth": 896,
      "imageheight": 1280
    }
  ],
  "layers": [
    {
      "id": 1,
      "name": "ground",
      "type": "tilelayer",
      "x": 0,
      "y": 0,
      "width": 29,
      "height": 16,
      "opacity": 1,
      "visible": true,
      "data": [
        245,
        245,
        245,
        245,
        245,
        245,
        245,
        245,
        245,
        245,
        245,
        245,
        245,
        245,
        245,
        245,
        245,
        245,
        245,
        245,
        245,
        245,
        245,
        245,
        245,
        245,
        245,
        245,
        245,
        245,
        245,
        245,
        245,
        245,
        245,
        245,
        245,
        245,
        245,
        245,
        245,
        245,
        245,
        245,
        245,
        245,
        245,
        245,
        245,
        245,
        245,
        245,
        245,
        245,
        245,
        245,
        245,
        245,
        245,
        245,
        245,
        245,
        245,
        245,
        245,
        245,
        245,
        245,
        245,
        245,
        245,
        245,
        245,
        245,
        245,
        245,
        245,
        245,
        245,
        245,
        245,
        245,
        245,
        245,
        245,
        245,
        245,
        245,
        245,
        245,
        245,
        245,
        245,
        245,
        245,
        245,
        245,
        245,
        245,
        245,
        245,
        245,
        245,
        245,
        245,
        245,
        245,
        245,
        245,
        245,
        245,
        245,
        245,
        245,
        245,
        245,
        245,
        245,
        245,
        245,
        245,
        245,
        245,
        245,
        245,
        245,
        245,
        245,
        245,
        245,
        245,
        245,
        245,
        245,
        245,
        245,
        245,
        245,
        245,
        245,
        245,
        245,
        245,
        245,
        245,
        245,
        245,
        245,
        245,
        245,
        245,
        245,
        245,
        245,
        245,
        245,
        245,
        245,
        245,
        245,
        245,
        245,
        245,
        245,
        245,
        245,
        245,
        245,
        245,
        245,
        245,
        245,
        245,
        245,
        245,
        245,
        245,
        245,
        245,
        245,
        245,
        245,
        245,
        245,
        245,
        245,
        245,
        245,
        245,
        245,
        245,
        245,
        245,
        245,
        245,
        245,
        245,
        245,
        245,
        245,
        245,
        245,
        245,
        245,
        245,
        245,
        245,
        245,
        245,
        245,
        245,
        245,
        245,
        245,
        245,
        245,
        245,
        245,
        245,
        245,
        245,
        245,
        245,
        245,
        245,
        245,
        245,
        245,
        245,
        245,
        245,
        245,
        245,
        245,
        245,
        245,
        245,
        245,
        245,
        245,
        245,
        245,
        245,
        245,
        245,
        245,
        245,
        245,
        245,
        245,
        245,
        245,
        245,
        245,
        245,
        245,
        245,
        245,
        245,
        245,
        245,
        245,
        245,
        245,
        245,
        245,
        245,
        245,
        245,
        245,
        245,
        245,
        245,
        245,
        245,
        245,
        245,
        245,
        245,
        245,
        245,
        245,
        245,
        245,
        245,
        245,
        245,
        245,
        245,
        245,
        245,
        245,
        245,
        245,
        245,
        245,
        245,
        245,
        245,
        245,
        245,
        245,
        245,
        245,
        245,
        245,
        245,
        245,
        245,
        245,
        245,
        245,
        245,
        245,
        245,
        245,
        245,
        245,
        245,
        245,
        245,
        245,
        245,
        245,
        245,
        245,
        245,
        245,
        245,
        245,
        245,
        245,
        245,
        245,
        245,
        245,
        245,
        245,
        245,
        245,
        245,
        245,
        245,
        245,
        245,
        245,
        245,
        245,
        245,
        245,
        245,
        245,
        245,
        245,
        245,
        245,
        245,
        245,
        245,
        245,
        245,
        245,
        245,
        245,
        245,
        245,
        245,
        245,
        245,
        245,
        245,
        245,
        245,
        245,
        245,
        245,
        245,
        245,
        245,
        245,
        245,
        245,
        245,
        245,
        245,
        245,
        245,
        245,
        245,
        245,
        245,
        245,
        245,
        245,
        245,
        245,
        245,
        245,
        245,
        245,
        245,
        245,
        245,
        245,
        245,
        245,
        245,
        245,
        245,
        245,
        245,
        245,
        245,
        245,
        245,
        245,
        245,
        245,
        245,
        245,
        245,
        245,
        245,
        245,
        245,
        245,
        245,
        245,
        245,
        245,
        245,
        245,
        245,
        245,
        245,
        245,
        245,
        245,
        245,
        245,
        245,
        245,
        245,
        245,
        245,
        245,
        245,
        245,
        245,
        245,
        245,
        245,
        245,
        245,
        245,
        245,
        245,
        245,
        245,
        245,
        245,
        245,
        245,
        245
      ]
    },
    {
      "id": 2,
      "name": "paths",
      "type": "tilelayer",
      "x": 0,
      "y": 0,
      "width": 29,
      "height": 16,
      "opacity": 1,
      "visible": true,
      "data": [
        0,
        0,
        0,
        0,
        0,
        0,
        0,
        0,
        0,
        0,
        0,
        0,
        0,
        0,
        0,
        0,
        0,
        0,
        0,
        0,
        0,
        0,
        0,
        0,
        0,
        0,
        0,
        0,
        0,
        0,
        0,
        0,
        0,
        0,
        0,
        0,
        0,
        0,
        0,
        0,
        0,
        0,
        0,
        0,
        0,
        0,
        0,
        0,
        0,
        0,
        0,
        0,
        0,
        0,
        0,
        0,
        0,
        0,
        0,
        0,
        0,
        0,
        0,
        0,
        0,
        0,
        0,
        0,
        0,
        0,
        0,
        0,
        0,
        0,
        0,
        0,
        0,
        0,
        0,
        0,
        0,
        0,
        0,
        0,
        0,
        0,
        0,
        0,
        0,
        0,
        0,
        0,
        0,
        0,
        0,
        0,
        0,
        0,
        0,
        0,
        0,
        0,
        0,
        0,
        0,
        0,
        0,
        0,
        0,
        0,
        0,
        0,
        0,
        0,
        0,
        0,
        0,
        0,
        0,
        0,
        0,
        0,
        0,
        0,
        0,
        0,
        0,
        0,
        0,
        0,
        0,
        0,
        0,
        0,
        0,
        0,
        0,
        0,
        0,
        0,
        0,
        0,
        0,
        0,
        0,
        386,
        386,
        386,
        386,
        386,
        386,
        386,
        386,
        386,
        386,
        386,
        386,
        386,
        386,
        386,
        386,
        386,
        386,
        386,
        386,
        386,
        386,
        386,
        386,
        386,
        386,
        386,
        386,
        0,
        386,
        386,
        386,
        386,
        386,
        386,
        386,
        386,
        386,
        386,
        386,
        386,
        386,
        386,
        386,
        386,
        386,
        386,
        386,
        386,
        386,
        386,
        386,
        386,
        386,
        386,
        386,
        386,
        0,
        386,
        386,
        386,
        386,
        386,
        386,
        386,
        386,
        386,
        386,
        386,
        386,
        386,
        386,
        386,
        386,
        386,
        386,
        386,
        386,
        386,
        386,
        386,
        386,
        386,
        386,
        386,
        386,
        0,
        386,
        386,
        386,
        386,
        386,
        386,
        386,
        386,
        386,
        386,
        386,
        386,
        386,
        386,
        386,
        386,
        386,
        386,
        386,
        386,
        386,
        386,
        386,
        386,
        386,
        386,
        386,
        386,
        0,
        386,
        386,
        386,
        386,
        386,
        386,
        386,
        386,
        386,
        386,
        386,
        386,
        386,
        386,
        386,
        386,
        386,
        386,
        386,
        386,
        386,
        386,
        386,
        386,
        386,
        386,
        386,
        386,
        0,
        386,
        386,
        386,
        386,
        386,
        386,
        386,
        386,
        386,
        386,
        386,
        386,
        386,
        386,
        386,
        386,
        386,
        386,
        386,
        386,
        386,
        386,
        386,
        386,
        386,
        386,
        386,
        386,
        0,
        386,
        386,
        386,
        386,
        386,
        386,
        386,
        386,
        386,
        386,
        386,
        386,
        386,
        386,
        386,
        386,
        386,
        386,
        386,
        386,
        386,
        386,
        386,
        386,
        386,
        386,
        386,
        386,
        0,
        386,
        386,
        386,
        386,
        386,
        386,
        386,
        386,
        386,
        386,
        386,
        386,
        386,
        386,
        386,
        386,
        386,
        386,
        386,
        386,
        386,
        386,
        386,
        386,
        386,
        386,
        386,
        386,
        0,
        386,
        386,
        386,
        386,
        386,
        386,
        386,
        386,
        386,
        386,
        386,
        386,
        386,
        386,
        386,
        386,
        386,
        386,
        386,
        386,
        386,
        386,
        386,
        386,
        386,
        386,
        386,
        386,
        0,
        386,
        386,
        386,
        386,
        386,
        386,
        386,
        386,
        386,
        386,
        386,
        386,
        386,
        386,
        386,
        386,
        386,
        386,
        386,
        386,
        386,
        386,
        386,
        386,
        386,
        386,
        386,
        386,
        0,
        0,
        0,
        0,
        0,
        0,
        0,
        0,
        0,
        0,
        0,
        0,
        0,
        0,
        0,
        0,
        0,
        0,
        0,
        0,
        0,
        0,
        0,
        0,
        0,
        0,
        0,
        0,
        0,
        0
      ]
    },
    {
      "id": 3,
      "name": "water",
      "type": "tilelayer",
      "x": 0,
      "y": 0,
      "width": 29,
      "height": 16,
      "opacity": 1,
      "visible": true,
      "data": [
        0,
        0,
        0,
        0,
        0,
        0,
        0,
        0,
        0,
        0,
        0,
        0,
        0,
        0,
        0,
        0,
        0,
        0,
        0,
        0,
        0,
        0,
        0,
        0,
        0,
        0,
        0,
        0,
        0,
        0,
        0,
        0,
        0,
        0,
        0,
        0,
        0,
        0,
        0,
        0,
        0,
        0,
        0,
        0,
        0,
        0,
        0,
        0,
        0,
        0,
        0,
        0,
        0,
        0,
        0,
        0,
        0,
        0,
        0,
        0,
        0,
        0,
        0,
        0,
        0,
        0,
        0,
        0,
        0,
        0,
        0,
        0,
        0,
        0,
        0,
        0,
        0,
        0,
        0,
        0,
        0,
        0,
        0,
        0,
        0,
        0,
        0,
        0,
        0,
        0,
        0,
        0,
        0,
        0,
        0,
        0,
        0,
        0,
        0,
        0,
        0,
        0,
        0,
        0,
        0,
        0,
        0,
        0,
        0,
        0,
        0,
        0,
        0,
        0,
        0,
        0,
        0,
        0,
        0,
        0,
        0,
        0,
        0,
        0,
        0,
        0,
        0,
        0,
        0,
        0,
        0,
        0,
        0,
        0,
        0,
        0,
        0,
        0,
        0,
        0,
        0,
        0,
        0,
        0,
        0,
        0,
        0,
        0,
        0,
        0,
        0,
        0,
        0,
        0,
        0,
        0,
        0,
        0,
        0,
        0,
        0,
        0,
        0,
        0,
        0,
        0,
        0,
        0,
        0,
        0,
        0,
        0,
        0,
        0,
        0,
        0,
        0,
        0,
        0,
        0,
        0,
        0,
        0,
        0,
        0,
        0,
        0,
        0,
        0,
        245,
        245,
        245,
        0,
        0,
        0,
        0,
        0,
        0,
        0,
        0,
        0,
        0,
        0,
        0,
        0,
        0,
        0,
        0,
        0,
        0,
        0,
        0,
        0,
        0,
        0,
        0,
        0,
        0,
        245,
        245,
        245,
        0,
        0,
        0,
        0,
        0,
        0,
        0,
        0,
        0,
        0,
        0,
        0,
        0,
        0,
        0,
        0,
        0,
        0,
        0,
        0,
        0,
        0,
        0,
        0,
        0,
        0,
        245,
        245,
        245,
        0,
        0,
        0,
        0,
        0,
        0,
        0,
        0,
        0,
        0,
        0,
        0,
        0,
        0,
        0,
        0,
        0,
        0,
        0,
        0,
        0,
        0,
        0,
        0,
        0,
        0,
        245,
        245,
        245,
        0,
        0,
        0,
        0,
        0,
        0,
        0,
        0,
        0,
        0,
        0,
        0,
        0,
        0,
        0,
        0,
        0,
        0,
        0,
        0,
        0,
        0,
        0,
        0,
        0,
        0,
        245,
        245,
        245,
        0,
        0,
        0,
        0,
        0,
        0,
        0,
        0,
        0,
        0,
        0,
        0,
        0,
        0,
        0,
        0,
        0,
        0,
        0,
        0,
        0,
        0,
        0,
        0,
        0,
        0,
        245,
        245,
        245,
        0,
        0,
        0,
        0,
        0,
        0,
        0,
        0,
        0,
        0,
        0,
        0,
        0,
        0,
        0,
        0,
        0,
        0,
        0,
        0,
        0,
        0,
        0,
        0,
        0,
        0,
        245,
        245,
        245,
        0,
        0,
        0,
        0,
        0,
        0,
        0,
        0,
        0,
        0,
        0,
        0,
        0,
        0,
        0,
        0,
        0,
        0,
        0,
        0,
        0,
        0,
        0,
        0,
        0,
        0,
        245,
        245,
        245,
        0,
        0,
        0,
        0,
        0,
        0,
        0,
        0,
        0,
        0,
        0,
        0,
        0,
        0,
        0,
        0,
        0,
        0,
        0,
        0,
        0,
        0,
        0,
        0,
        0,
        0,
        245,
        245,
        245,
        0,
        0,
        0,
        0,
        0,
        0,
        0,
        0,
        0,
        0,
        0,
        0,
        0,
        0,
        0,
        0,
        0,
        0,
        0,
        0,
        0,
        0,
        0,
        0,
        0,
        0,
        0,
        0,
        0,
        0,
        0,
        0,
        0,
        0,
        0,
        0,
        0,
        0,
        0,
        0
      ]
    },
    {
      "id": 4,
      "name": "decor",
      "type": "tilelayer",
      "x": 0,
      "y": 0,
      "width": 29,
      "height": 16,
      "opacity": 1,
      "visible": true,
      "data": [
        0,
        0,
        0,
        0,
        0,
        0,
        0,
        0,
        0,
        0,
        0,
        0,
        0,
        0,
        0,
        0,
        0,
        0,
        0,
        0,
        0,
        0,
        0,
        0,
        0,
        0,
        0,
        0,
        0,
        0,
        0,
        0,
        0,
        0,
        0,
        0,
        0,
        0,
        0,
        0,
        0,
        0,
        0,
        0,
        0,
        0,
        0,
        0,
        0,
        0,
        0,
        0,
        0,
        0,
        0,
        0,
        0,
        0,
        0,
        0,
        0,
        0,
        0,
        0,
        0,
        0,
        0,
        0,
        0,
        0,
        0,
        0,
        0,
        0,
        0,
        0,
        0,
        0,
        0,
        0,
        0,
        0,
        0,
        0,
        0,
        0,
        0,
        0,
        0,
        0,
        0,
        0,
        0,
        0,
        0,
        0,
        0,
        0,
        0,
        0,
        0,
        0,
        0,
        0,
        0,
        0,
        0,
        0,
        0,
        0,
        0,
        0,
        0,
        0,
        0,
        0,
        0,
        0,
        0,
        0,
        0,
        0,
        0,
        0,
        0,
        0,
        0,
        0,
        0,
        0,
        0,
        0,
        0,
        0,
        0,
        0,
        0,
        0,
        0,
        0,
        0,
        0,
        0,
        0,
        0,
        0,
        0,
        0,
        0,
        0,
        0,
        0,
        0,
        0,
        0,
        0,
        0,
        0,
        0,
        0,
        0,
        0,
        0,
        0,
        0,
        0,
        0,
        0,
        0,
        0,
        0,
        0,
        0,
        0,
        0,
        0,
        0,
        0,
        0,
        0,
        0,
        0,
        0,
        0,
        293,
        294,
        295,
        0,
        0,
        0,
        0,
        0,
        0,
        0,
        0,
        0,
        0,
        0,
        0,
        0,
        0,
        0,
        0,
        0,
        0,
        0,
        0,
        0,
        0,
        0,
        0,
        0,
        0,
        321,
        322,
        323,
        0,
        0,
        0,
        0,
        0,
        0,
        0,
        0,
        0,
        0,
        0,
        0,
        0,
        0,
        0,
        0,
        0,
        0,
        0,
        0,
        0,
        0,
        0,
        0,
        0,
        0,
        0,
        0,
        0,
        0,
        0,
        0,
        0,
        0,
        0,
        0,
        0,
        0,
        0,
        0,
        0,
        0,
        0,
        0,
        0,
        0,
        0,
        0,
        0,
        0,
        0,
        0,
        0,
        0,
        0,
        0,
        0,
        0,
        0,
        0,
        221,
        222,
        223,
        0,
        0,
        0,
        0,
        0,
        0,
        0,
        0,
        0,
        0,
        0,
        0,
        0,
        0,
        0,
        0,
        0,
        0,
        0,
        0,
        0,
        0,
        0,
        0,
        0,
        0,
        249,
        250,
        251,
        0,
        0,
        0,
        0,
        0,
        0,
        0,
        0,
        0,
        0,
        0,
        0,
        0,
        0,
        0,
        0,
        0,
        0,
        0,
        0,
        0,
        293,
        294,
        295,
        0,
        0,
        0,
        0,
        0,
        0,
        454,
        455,
        456,
        0,
        0,
        0,
        0,
        0,
        0,
        0,
        0,
        0,
        0,
        0,
        0,
        0,
        0,
        0,
        0,
        0,
        321,
        322,
        323,
        0,
        0,
        0,
        0,
        0,
        0,
        482,
        483,
        484,
        0,
        0,
        0,
        0,
        0,
        0,
        0,
        0,
        0,
        0,
        0,
        0,
        0,
        0,
        0,
        0,
        0,
        0,
        0,
        0,
        0,
        0,
        0,
        0,
        0,
        0,
        0,
        0,
        0,
        0,
        0,
        0,
        0,
        0,
        0,
        0,
        0,
        0,
        0,
        0,
        0,
        0,
        0,
        0,
        0,
        0,
        0,
        0,
        0,
        0,
        0,
        0,
        0,
        0,
        0,
        0,
        0,
        0,
        0,
        0,
        0,
        0,
        0,
        0,
        0,
        0,
        0,
        0,
        0,
        0,
        0,
        0,
        0,
        0,
        0,
        0,
        0,
        0,
        0,
        0,
        0,
        0,
        0,
        0,
        0,
        0,
        0,
        0,
        0,
        0,
        0,
        0,
        0,
        0
      ]
    },
    {
      "id": 5,
      "name": "collision",
      "type": "objectgroup",
      "draworder": "topdown",
      "opacity": 1,
      "visible": true,
      "objects": [
        {
          "id": 1,
          "name": "island-rock-1",
          "class": "obstacle",
          "x": 335,
          "y": 210,
          "width": 74,
          "height": 56,
          "rotation": 0,
          "visible": true,
          "properties": [
            {
              "name": "kind",
              "type": "string",
              "value": "rock"
            }
          ]
        },
        {
          "id": 2,
          "name": "island-rock-2",
          "class": "obstacle",
          "x": 350,
          "y": 370,
          "width": 74,
          "height": 44,
          "rotation": 0,
          "visible": true,
          "properties": [
            {
              "name": "kind",
              "type": "string",
              "value": "rock"
            }
          ]
        },
        {
          "id": 3,
          "name": "ink-stream",
          "class": "obstacle",
          "x": 500,
          "y": 250,
          "width": 86,
          "height": 165,
          "rotation": 0,
          "visible": true,
          "properties": [
            {
              "name": "kind",
              "type": "string",
              "value": "water"
            }
          ]
        },
        {
          "id": 4,
          "name": "island-tree",
          "class": "obstacle",
          "x": 610,
          "y": 360,
          "width": 76,
          "height": 48,
          "rotation": 0,
          "visible": true,
          "properties": [
            {
              "name": "kind",
              "type": "string",
              "value": "tree"
            }
          ]
        }
      ]
    },
    {
      "id": 6,
      "name": "entities",
      "type": "objectgroup",
      "draworder": "topdown",
      "opacity": 1,
      "visible": true,
      "objects": [
        {
          "id": 5,
          "name": "player-spawn",
          "class": "player_spawn",
          "point": true,
          "x": 105,
          "y": 315,
          "width": 0,
          "height": 0,
          "rotation": 0,
          "visible": true,
          "properties": []
        },
        {
          "id": 6,
          "name": "word-island-portal",
          "class": "portal",
          "point": true,
          "x": 775,
          "y": 270,
          "width": 0,
          "height": 0,
          "rotation": 0,
          "visible": true,
          "properties": []
        },
        {
          "id": 7,
          "name": "word-mimic",
          "class": "boss",
          "point": true,
          "x": 824,
          "y": 282,
          "width": 0,
          "height": 0,
          "rotation": 0,
          "visible": true,
          "properties": []
        },
        {
          "id": 8,
          "name": "rune-chest",
          "class": "chest",
          "point": true,
          "x": 230,
          "y": 360,
          "width": 0,
          "height": 0,
          "rotation": 0,
          "visible": true,
          "properties": []
        },
        {
          "id": 9,
          "name": "rune-first",
          "class": "collectible",
          "point": true,
          "x": 285,
          "y": 282,
          "width": 0,
          "height": 0,
          "rotation": 0,
          "visible": true,
          "properties": [
            {
              "name": "value",
              "type": "string",
              "value": "마"
            }
          ]
        },
        {
          "id": 10,
          "name": "rune-second",
          "class": "collectible",
          "point": true,
          "x": 455,
          "y": 330,
          "width": 0,
          "height": 0,
          "rotation": 0,
          "visible": true,
          "properties": [
            {
              "name": "value",
              "type": "string",
              "value": "법"
            }
          ]
        },
        {
          "id": 11,
          "name": "rune-third",
          "class": "collectible",
          "point": true,
          "x": 625,
          "y": 275,
          "width": 0,
          "height": 0,
          "rotation": 0,
          "visible": true,
          "properties": [
            {
              "name": "value",
              "type": "string",
              "value": "문"
            }
          ]
        },
        {
          "id": 12,
          "name": "island-librarian",
          "class": "npc",
          "point": true,
          "x": 175,
          "y": 300,
          "width": 0,
          "height": 0,
          "rotation": 0,
          "visible": true,
          "properties": []
        },
        {
          "id": 13,
          "name": "shell-poet",
          "class": "npc",
          "point": true,
          "x": 440,
          "y": 355,
          "width": 0,
          "height": 0,
          "rotation": 0,
          "visible": true,
          "properties": []
        }
      ]
    },
    {
      "id": 7,
      "name": "zones",
      "type": "objectgroup",
      "draworder": "topdown",
      "opacity": 1,
      "visible": true,
      "objects": [
        {
          "id": 14,
          "name": "word-bridge",
          "class": "bridge",
          "x": 500,
          "y": 300,
          "width": 86,
          "height": 60,
          "rotation": 0,
          "visible": true,
          "properties": []
        },
        {
          "id": 15,
          "name": "shell-library",
          "class": "secret_area",
          "x": 625,
          "y": 350,
          "width": 135,
          "height": 58,
          "rotation": 0,
          "visible": true,
          "properties": []
        },
        {
          "id": 16,
          "name": "battle-hud-safe-area",
          "class": "battle_safe_area",
          "x": 64,
          "y": 96,
          "width": 800,
          "height": 266,
          "rotation": 0,
          "visible": true,
          "properties": []
        }
      ]
    }
  ]
}
